X: 3370
M: 2/4
L: 1/8
K: D
|:\
a>fdf | e>def | a>f d(f/a/) | b3 b |\
a>fg>e | fdef | A>ABA | d2-dz :|


